X: 16557
T: Hamefarin'
R: barndance
M: 4/4
K: Fmajor
CB,|:A,CFA c=BcB|c2A2AFCA,|B,2G2G^FGB|A2c2c2CB,|
A,CFA c=BcB|c2A2AFCA,|B,2G2E2C2|1 F2F2F2CB,:|2 F2F2F2cB||
|:A2F2F2E2|D2B2B2gf|e2c2c2b2|b2a2a2cB|
A2F2F2E2|D2B2B2gf|e2c2c2E2|1 F4F2cB:|2 F4F2||

